src/components/class-icon/images/Druid.svg

<?xml version="1.0" encoding="UTF-8"?>
<svg width="61px" height="100px" viewBox="0 0 61 100" version="1.1" xmlns="http://www.w3.org/2000/svg" xmlns:xlink="http://www.w3.org/1999/xlink">
    <!-- Generator: Sketch 53.2 (72643) - https://sketchapp.com -->
    <title>ClassIcon/Druid</title>
    <desc>Created with Sketch.</desc>
    <g id="ClassIcon/Druid" stroke="none" stroke-width="1" fill="none" fill-rule="evenodd">
        <g transform="translate(-0.000000, 0.000000)" fill="#00040C" fill-rule="nonzero" id="Druid">
            <path d="M17.7941176,77.0980392 C17.3104719,77.2761749 16.7717678,77.221943 16.3333333,76.9509804 C14.775785,76.3173692 13.3269074,75.4440731 12.0392157,74.3627451 C11.7640336,74.1809684 11.479312,74.0140626 11.1862745,73.8627451 C11.0373009,73.7710589 10.9019846,73.6588454 10.7843137,73.5294118 C10.1568627,72.8039216 10.2156863,72.4607843 11.0294118,71.9803922 L11.2941176,71.8039216 C10.8172619,71.4541397 10.238307,71.2714932 9.64705882,71.2843137 C9.34057621,71.3137865 9.03197281,71.3137865 8.7254902,71.2843137 C7.99196908,71.2029464 7.26481051,71.0719269 6.54901961,70.8921569 C5.53128457,70.7101286 4.64932396,70.0801567 4.14705882,69.1764706 C4.01749501,68.9361359 3.95644996,68.6648245 3.97058824,68.3921569 C3.95330829,67.5216643 4.48803013,66.7353086 5.30392157,66.4313725 C5.61764706,66.3235294 5.90196078,66.1666667 6.28431373,65.9803922 C5.89215686,65.627451 5.57843137,65.3137255 5.23529412,65 C4.47058824,64.3823529 3.66666667,63.8333333 2.94117647,63.1764706 C1.97497046,62.2895325 1.29274813,61.1365767 0.980392157,59.8627451 C0.740963823,59.1745966 0.71026623,58.4310326 0.892156863,57.7254902 C1.00207188,57.3878712 1.13979885,57.0599498 1.30392157,56.745098 C1.39783122,56.6189358 1.53980046,56.5373035 1.69607843,56.5196078 C2.11838508,56.4609666 2.5442296,56.4314851 2.97058824,56.4313725 C3.41176471,56.4313725 3.6372549,56.2745098 3.54901961,55.872549 C3.29061583,53.9959391 3.44451737,52.0855526 4,50.2745098 C4.20268542,49.2191918 4.58044551,48.2052042 5.11764706,47.2745098 C5.36974266,46.850091 5.7970117,46.5592608 6.28431373,46.4803922 C7.71568627,46.1764706 8.57843137,47.0392157 9.37254902,47.9901961 C9.62714268,48.3631053 9.85014026,48.7566304 10.0392157,49.1666667 C10.4313725,49.8627451 10.8333333,50.5490196 11.2058824,51.254902 C11.372549,51.5686275 11.4803922,51.9019608 11.6372549,52.2352941 C11.7242903,52.4115129 11.8329729,52.5761836 11.9607843,52.7254902 C12.2941176,53.1078431 12.5196078,53.0882353 12.7745098,52.7254902 C12.8689745,52.5773444 12.9541071,52.4234508 13.0294118,52.2647059 C13.1697952,51.8162552 13.5560598,51.4888695 14.0214545,51.4238819 C14.4868491,51.3588944 14.9480214,51.5679443 15.2058824,51.9607843 C15.6362748,52.5384431 15.9220259,53.2107987 16.0392157,53.9215686 C16.3086681,54.763673 16.3692327,55.6586834 16.2156863,56.5294118 C16.0404853,57.3683464 15.9095851,58.2159252 15.8235294,59.0686275 C15.7914532,59.2737293 15.8151577,59.4836837 15.8921569,59.6764706 C16.0784314,60.0882353 16.2254902,60.1176471 16.627451,59.9117647 C17.0294118,59.7058824 17.2058824,59.5784314 17.5098039,59.4607843 C17.8856829,59.3065448 18.3105813,59.3267611 18.6701182,59.5159911 C19.0296552,59.705221 19.2868801,60.044017 19.372549,60.4411765 C19.7030363,61.7994257 19.3354369,63.2330637 18.3921569,64.2647059 C18.1862745,64.5098039 17.9607843,64.7352941 17.7843137,64.9901961 C17.6907272,65.1535773 17.6182528,65.3281747 17.5686275,65.5098039 L19.627451,65.0784314 C20,65 20.1372549,65.127451 20.2352941,65.4901961 C20.3511361,65.9889332 20.3170284,66.5107803 20.1372549,66.9901961 C19.8602385,68.1751853 19.163762,69.2199 18.1764706,69.9313725 C18.0659488,70.0157871 17.9641362,70.1110312 17.872549,70.2156863 C17.5588235,70.5882353 17.6176471,70.9117647 18.0882353,70.9901961 C18.5588235,71.0686275 18.5490196,71.2843137 18.5588235,71.5980392 C18.5686275,71.9117647 18.5588235,72.1470588 18.5588235,72.4117647 C18.552317,73.0044957 18.7082867,73.5876867 19.0098039,74.0980392 C19.4778684,74.9378024 19.4439257,75.9673979 18.9215686,76.7745098 L19.4215686,77.2058824 C19.2406853,77.5894781 19.3807044,78.0477226 19.745098,78.2647059 C20.6367965,79.2053964 21.7693596,79.8835779 23.0196078,80.2254902 C23.0196078,79.4019608 23.0196078,78.5882353 23.0196078,77.7745098 C23.0196078,76.9607843 22.9313725,75.9803922 22.9117647,75.0784314 C22.9117647,72.9509804 22.8333333,70.8137255 22.7941176,68.6862745 C22.7941176,68.1960784 22.6568627,67.7058824 22.6862745,67.2254902 C22.7843137,65.4509804 22.6862745,63.6960784 22.6862745,61.9313725 C22.6862745,59.0784314 22.7843137,56.2352941 22.8431373,53.3823529 C22.8415313,53.2273353 22.8822044,53.0748112 22.9607843,52.9411765 C23.3152321,52.454398 23.6948329,51.9864418 24.0980392,51.5392157 C24.3660447,51.2985922 24.6547443,51.0820676 24.9607843,50.8921569 C24.9607843,49.9803922 24.9019608,48.9313725 24.8333333,47.8823529 C24.7828468,47.4839471 24.5310024,47.1395129 24.1666667,46.9705882 C23.372549,46.5 22.5980392,45.9901961 21.7843137,45.5882353 C20.4006593,44.8928333 19.0873771,44.0654655 17.8627451,43.1176471 C16.7647059,42.2352941 15.6568627,41.3529412 14.6568627,40.372549 C13.4313061,39.1311834 12.4030512,37.7094805 11.6078431,36.1568627 C10.7250956,34.4581522 10.0660214,32.6522889 9.64705882,30.7843137 C9.31385242,29.126667 9.20503447,27.431745 9.32352941,25.745098 C9.35954149,23.1652866 9.85417443,20.6124494 10.7843137,18.2058824 C11.7015582,15.88678 12.9569904,13.7162036 14.5098039,11.7647059 C16.1947666,9.63726461 18.1756495,7.76202879 20.3921569,6.19607843 C21.6490865,5.32793893 22.9588055,4.53883325 24.3137255,3.83333333 C25.9648669,3.02125446 27.6922136,2.37432045 29.4705882,1.90196078 C30.6633104,1.60479598 31.875449,1.39185272 33.0980392,1.26470588 C35.0815934,0.983947815 37.0870065,0.888764539 39.0882353,0.980392157 C41.7190196,1.06589217 44.3402052,1.34111666 46.9313725,1.80392157 C48.2347271,2.05071623 49.521513,2.37814268 50.7843137,2.78431373 C51.5653684,3.10891034 52.322202,3.4889653 53.0490196,3.92156863 C53.8333333,4.31372549 54.6078431,4.73529412 55.3921569,5.09803922 C56.6548471,5.68933457 57.782704,6.53355889 58.7058824,7.57843137 C59.1176471,8.04901961 59.5980392,8.46078431 60.0490196,8.90196078 L60.0490196,9.03921569 C59.6390778,9.04609386 59.2292498,9.01986487 58.8235294,8.96078431 C57.5490196,8.66666667 56.2941176,8.32352941 55.0196078,7.98039216 C53.745098,7.6372549 52.6568627,7.45098039 51.4705882,7.18627451 C50.0686275,6.87254902 48.8921569,6.7254902 47.4705882,6.50980392 C46.357717,6.38292124 45.2373536,6.33378249 44.1176471,6.3627451 C43.5806284,6.42631066 43.0407042,6.46230561 42.5,6.47058824 C40.8529412,6.58823529 39.2941176,6.64705882 37.6568627,6.81372549 C36.3802352,6.98406012 35.1136983,7.2229676 33.8627451,7.52941176 C32.7333786,7.74964236 31.6198322,8.04440464 30.5294118,8.41176471 C29.2214976,8.8513735 27.9524165,9.39901316 26.7352941,10.0490196 C25.2367334,10.8545165 23.8326377,11.8245592 22.5490196,12.9411765 C21.3576867,14.028175 20.3070424,15.2599648 19.4215686,16.6078431 C18.2094677,18.4171189 17.2804801,20.4007224 16.6666667,22.4901961 C16.2937945,23.7256769 16.0828818,25.0043348 16.0392157,26.2941176 C16.0245725,27.3893765 16.1430884,28.482356 16.3921569,29.5490196 C17.0105744,32.2260097 18.2763305,34.7103927 20.0784314,36.7843137 C20.8322491,37.5970994 21.6592658,38.338789 22.5490196,39 C23.7352941,39.9803922 24.9607843,40.872549 26.1568627,41.8235294 C26.3885673,42.0332664 26.6992623,42.1332602 27.0098039,42.0980392 C27.5196078,42.0392157 27.9901961,42.0980392 28.5392157,42.0980392 C29.0882353,42.0980392 29.3333333,42.3431373 29.5196078,42.8529412 C29.741498,43.4821673 29.7889268,44.1597226 29.6568627,44.8137255 C29.5490196,45.8627451 29.4803922,46.9215686 29.3823529,47.9705882 C29.2843137,49.0196078 29.2058824,49.7647059 29.1372549,50.5686275 C29.5404547,50.8806447 29.9115682,51.2320531 30.245098,51.6176471 C30.4829572,51.9442241 30.6224308,52.3320287 30.6470588,52.7352941 C30.6504748,53.6553855 30.6046576,54.5750007 30.5098039,55.4901961 C30.3754867,56.4659878 30.3754867,57.4555809 30.5098039,58.4313725 C30.5735558,59.1128914 30.5735558,59.7988733 30.5098039,60.4803922 C30.5098039,61.7352941 30.5098039,62.9803922 30.5098039,64.2352941 C30.5098039,64.5294118 30.5098039,64.8235294 30.5098039,65.1176471 C30.5098039,65.9019608 30.4215686,66.6862745 30.4019608,67.4705882 C30.3921569,69.6666667 30.3921569,71.8333333 30.3921569,73.9901961 C30.3809325,74.2772531 30.438056,74.5628707 30.5588235,74.8235294 C30.66296,75.200182 30.6830416,75.5951193 30.6176471,75.9803922 C30.6176471,76.745098 30.5098039,77.5 30.5196078,78.2647059 C30.5196078,79.3333333 30.5784314,80.4117647 30.627451,81.4901961 C30.627451,81.9803922 30.7352941,82.4705882 30.7352941,82.9509804 C30.7352941,83.7058824 30.6568627,84.4705882 30.6666667,85.2254902 C30.6764706,85.9803922 30.745098,87.0098039 30.7941176,88.0392157 C31.3471526,87.6569882 31.8684513,87.2307692 32.3529412,86.7647059 C33.0169476,86.1234218 33.5526487,85.3614618 33.9313725,84.5196078 C33.9313725,84.3823529 34.1470588,84.2941176 34.2058824,84.1568627 C34.2540505,84.0036978 34.2540505,83.8394395 34.2058824,83.6862745 C33.9313296,83.0034834 34.0120694,82.2291152 34.4215686,81.6176471 C34.762037,81.0239476 34.9029358,80.3366365 34.8235294,79.6568627 C34.8089325,79.4839677 34.8089325,79.31015 34.8235294,79.1372549 C34.8098925,79.0107538 34.8480602,78.8841216 34.9293316,78.7862265 C35.0106031,78.6883314 35.1280513,78.627517 35.254902,78.6176471 C35.7647059,78.4901961 35.8235294,78.2156863 35.4705882,77.8235294 C35.395515,77.7321274 35.309961,77.6498639 35.2156863,77.5784314 C34.0831688,76.7504502 33.3279555,75.5047011 33.1176471,74.1176471 C33.1176471,74.1176471 33.1176471,74.0392157 33.1176471,74 C32.9509804,73.0196078 33.254902,72.6666667 34.2156863,72.7941176 C34.7365347,72.9004519 35.2505309,73.0379541 35.754902,73.2058824 C35.9509804,72.9509804 35.754902,72.7647059 35.5784314,72.5784314 C35.1186835,72.0494602 34.6961048,71.4892977 34.3137255,70.9019608 C33.8419514,70.0318469 33.7259782,69.0126882 33.9901961,68.0588235 C34.1273511,67.5898528 34.4856964,67.2179131 34.9492377,67.0633994 C35.412779,66.9088856 35.9226191,66.9914302 36.3137255,67.2843137 C36.3921569,67.3333333 36.4607843,67.4215686 36.5490196,67.4509804 C36.6372549,67.4803922 37.0882353,67.6862745 37.2352941,67.5980392 C37.529341,67.4196024 37.6630374,67.0630787 37.5588235,66.7352941 C37.4464253,66.382182 37.357989,66.021886 37.2941176,65.6568627 C37.1770436,64.9821413 37.0984851,64.3013007 37.0588235,63.6176471 C37.0259874,62.3626445 37.3163244,61.1202721 37.9019608,60.0098039 C38.0699531,59.7222335 38.3055102,59.4799462 38.5882353,59.3039216 C39.372549,58.8039216 39.872549,58.9509804 40.3235294,59.7647059 C40.4215686,59.9313725 40.5,60.1078431 40.5980392,60.2745098 C40.872549,60.7254902 41.1176471,60.745098 41.4411765,60.3235294 C41.6435561,60.035409 41.8206843,59.7303549 41.9705882,59.4117647 C42.1764706,59.0098039 42.3529412,58.5980392 42.5588235,58.2058824 C43,57.4019608 43.4509804,56.5980392 43.9019608,55.8039216 C44.4469801,54.982997 45.2458699,54.3631687 46.1764706,54.0392157 C46.9759613,53.8973827 47.7855129,54.2296043 48.254902,54.8921569 C48.6337744,55.551778 48.9363737,56.2523612 49.1568627,56.9803922 C49.4929779,58.2704278 49.7483748,59.5801555 49.9215686,60.9019608 C49.9900901,61.7154254 49.9703674,62.5339171 49.8627451,63.3431373 C49.8137255,63.9313725 49.8627451,64.0392157 50.5,64.0098039 C50.6958019,63.9950773 50.8924334,63.9950773 51.0882353,64.0098039 C52.0196078,64.0882353 52.2941176,64.372549 52.5196078,65.3039216 C52.6896786,66.1319351 52.6251647,66.9909885 52.3333333,67.7843137 C52.1145676,68.5938653 51.7119692,69.3420272 51.1568627,69.9705882 C50.5490196,70.6078431 49.8823529,71.1862745 49.1960784,71.7647059 C48.6960784,72.1960784 48.2156863,72.5882353 47.6470588,73 C47.4607843,73.1372549 47.254902,73.254902 47.0588235,73.3823529 L47.1764706,73.5882353 C47.4803922,73.7254902 47.7941176,73.8921569 48.1078431,74 C48.8534435,74.2948142 49.3615384,74.9939223 49.4117647,75.7941176 C49.5129167,76.4989074 49.1853787,77.1963705 48.5784314,77.5686275 C47.8874858,78.1621411 47.0177452,78.5072763 46.1078431,78.5490196 C45.5674602,78.6102919 45.0350819,78.7285982 44.5196078,78.9019608 C44.3127962,78.9461938 44.0989685,78.9461938 43.8921569,78.9019608 C43.2767851,78.9018279 42.6743773,79.0788064 42.1568627,79.4117647 C42.4313725,79.5882353 42.6078431,79.7254902 42.8039216,79.8235294 C42.9489083,79.8860107 43.0599805,80.0078833 43.108778,80.1580295 C43.1575755,80.3081757 43.139375,80.4720619 43.0588235,80.6078431 C42.8112368,81.1472278 42.3805159,81.5814223 41.8431373,81.8333333 C41.6039169,81.9597659 41.3745154,82.1039611 41.1568627,82.2647059 C39.826494,83.3289952 38.3422645,84.1851542 36.754902,84.8039216 C36.1078431,85.0686275 35.8921569,84.9803922 35.3529412,84.4117647 L34.0294118,86.4607843 C33.8137255,86.5196078 33.627451,86.5196078 33.5294118,86.6078431 C32.7156863,87.4019608 31.9117647,88.2058824 31.1078431,89.0196078 C30.8719199,89.2523183 30.7624511,89.5843737 30.8137255,89.9117647 C30.8232641,90.7702837 30.9859453,91.62021 31.2941176,92.4215686 C31.4545287,92.9755496 31.4545287,93.5636661 31.2941176,94.1176471 C31.2243699,95.0461927 31.0365829,95.9620658 30.7352941,96.8431373 C30.3181726,98.1414222 29.0406106,98.9630055 27.6862745,98.8039216 C27.2274181,98.757899 26.763992,98.804575 26.3235294,98.9411765 C25.7499458,99.0785941 25.152015,99.0785941 24.5784314,98.9411765 C24.3039216,98.8823529 24.0392157,98.5 23.8823529,98.2156863 C23.6618914,97.6478896 23.2192722,97.1946475 22.6568627,96.9607843 C21.8629325,96.5789874 21.1581455,96.0345311 20.5882353,95.3627451 C20.4761631,95.210177 20.4238489,95.0218458 20.4411765,94.8333333 C20.4312363,93.7334541 20.4803265,92.6338338 20.5882353,91.5392157 C20.7156863,90.627451 20.8529412,89.5784314 21.9313725,89.2058824 C22.4269356,88.6512454 22.765393,87.9743306 22.9117647,87.245098 C22.9803922,86.0392157 22.9117647,84.8235294 22.9705882,83.6078431 C22.9692992,83.2179088 22.9922191,82.8282705 23.0392157,82.4411765 C23.1372549,81.8039216 23.0392157,81.6960784 22.5098039,81.3137255 C22.0331197,80.9518352 21.5780888,80.5622763 21.1470588,80.1470588 C21.0882353,80.0882353 21.0490196,80.0098039 20.9803922,79.9803922 C19.9215686,79.4019608 19.2941176,78.3431373 18.3431373,77.6568627 C18.1414335,77.489928 17.9574565,77.3026658 17.7941176,77.0980392 Z M35.6176471,83.8529412 C35.5588235,83.8529412 35.5294118,83.7745098 35.4803922,83.7647059 C35.4313725,83.754902 35.4215686,83.7647059 35.4215686,83.8431373 C35.4151096,83.8853754 35.4151096,83.9283501 35.4215686,83.9705882 L35.6176471,83.8529412 Z"></path>
        </g>
    </g>
</svg>

<svg viewBox="0 0 61 100" xmlns="http://www.w3.org/2000/svg"><path d="M17.794 77.098a1.676 1.676 0 0 1-1.46-.147 16.127 16.127 0 0 1-4.295-2.588 9.235 9.235 0 0 0-.853-.5 1.863 1.863 0 0 1-.402-.334c-.627-.725-.568-1.068.245-1.549l.265-.176a2.686 2.686 0 0 0-1.647-.52c-.306.03-.615.03-.922 0a16.324 16.324 0 0 1-2.176-.392 3.441 3.441 0 0 1-2.402-1.716 1.49 1.49 0 0 1-.176-.784 2.049 2.049 0 0 1 1.333-1.96c.314-.108.598-.265.98-.452-.392-.353-.706-.666-1.049-.98-.764-.618-1.568-1.167-2.294-1.824a6.647 6.647 0 0 1-1.96-3.313 3.696 3.696 0 0 1-.089-2.138c.11-.337.248-.665.412-.98a.569.569 0 0 1 .392-.225 9.284 9.284 0 0 1 1.275-.089c.44 0 .666-.156.578-.558A13.03 13.03 0 0 1 4 50.275a9.637 9.637 0 0 1 1.118-3c.252-.425.679-.716 1.166-.795 1.432-.304 2.294.56 3.089 1.51.254.373.477.767.666 1.177.392.696.794 1.382 1.167 2.088.167.314.274.647.431.98.087.177.196.341.324.49.333.383.559.363.814 0 .094-.148.18-.302.254-.46a1.216 1.216 0 0 1 2.177-.304c.43.577.716 1.25.833 1.96.27.843.33 1.738.177 2.608a24.412 24.412 0 0 0-.392 2.54c-.033.205-.009.415.068.607.186.412.333.442.735.236.402-.206.579-.334.883-.451a1.373 1.373 0 0 1 1.863.98 4.196 4.196 0 0 1-.98 3.824c-.207.245-.432.47-.609.725a2.225 2.225 0 0 0-.215.52l2.058-.432c.373-.078.51.05.608.412.116.499.082 1.02-.098 1.5a5.04 5.04 0 0 1-1.96 2.941c-.111.085-.213.18-.304.285-.314.372-.255.696.215.774.47.079.461.294.47.608.01.314 0 .55 0 .814-.006.592.15 1.176.452 1.686.468.84.434 1.87-.088 2.677l.5.43a.824.824 0 0 0 .323 1.06 7.088 7.088 0 0 0 3.275 1.96v-2.45c0-.814-.089-1.795-.108-2.697 0-2.127-.079-4.264-.118-6.392 0-.49-.137-.98-.108-1.46.098-1.775 0-3.53 0-5.295 0-2.853.098-5.696.157-8.549a.853.853 0 0 1 .118-.44c.354-.488.734-.956 1.137-1.403.268-.24.557-.457.863-.647 0-.912-.059-1.96-.128-3.01a1.167 1.167 0 0 0-.666-.911c-.794-.471-1.569-.98-2.383-1.383a24.059 24.059 0 0 1-3.921-2.47c-1.098-.883-2.206-1.765-3.206-2.745a17.088 17.088 0 0 1-3.05-4.216 22.176 22.176 0 0 1-1.96-5.373 18.863 18.863 0 0 1-.323-5.039c.036-2.58.53-5.133 1.46-7.54a25.275 25.275 0 0 1 3.726-6.44 28.431 28.431 0 0 1 5.882-5.569 36.833 36.833 0 0 1 3.922-2.363 27.931 27.931 0 0 1 5.157-1.931 26.225 26.225 0 0 1 3.627-.637 32.225 32.225 0 0 1 5.99-.285c2.631.086 5.252.361 7.843.824 1.304.247 2.59.574 3.853.98.781.325 1.538.705 2.265 1.138.784.392 1.559.813 2.343 1.176a10.186 10.186 0 0 1 3.314 2.48c.412.471.892.883 1.343 1.324v.137c-.41.007-.82-.02-1.225-.078-1.275-.294-2.53-.637-3.804-.98-1.275-.344-2.363-.53-3.55-.795-1.401-.313-2.578-.46-4-.676a24.098 24.098 0 0 0-3.352-.147c-.537.063-1.077.1-1.618.108-1.647.117-3.206.176-4.843.343-1.277.17-2.543.409-3.794.715-1.13.22-2.243.515-3.334.883-1.308.44-2.577.987-3.794 1.637a22.892 22.892 0 0 0-4.186 2.892 19.333 19.333 0 0 0-3.127 3.667 21.412 21.412 0 0 0-2.755 5.882 14.912 14.912 0 0 0-.628 3.804 13.52 13.52 0 0 0 .353 3.255 16.794 16.794 0 0 0 3.686 7.235c.754.813 1.581 1.555 2.471 2.216 1.186.98 2.412 1.873 3.608 2.824.232.21.542.31.853.274.51-.059.98 0 1.53 0 .548 0 .793.245.98.755.221.63.269 1.307.137 1.96-.108 1.05-.177 2.109-.275 3.158-.098 1.049-.176 1.794-.245 2.598.403.312.775.663 1.108 1.049.238.326.377.714.402 1.117.003.92-.042 1.84-.137 2.755a10.784 10.784 0 0 0 0 2.941 11 11 0 0 1 0 2.05V65.117c0 .784-.088 1.568-.108 2.353-.01 2.196-.01 4.362-.01 6.52-.011.286.046.572.167.833.104.376.124.771.059 1.156 0 .765-.108 1.52-.098 2.285 0 1.068.058 2.147.107 3.225 0 .49.108.98.108 1.461 0 .755-.078 1.52-.068 2.274.01.755.078 1.785.127 2.814a12.5 12.5 0 0 0 1.559-1.274 7.265 7.265 0 0 0 1.578-2.245c0-.138.216-.226.275-.363a.784.784 0 0 0 0-.47 2.225 2.225 0 0 1 .216-2.07c.34-.593.48-1.28.402-1.96a3.088 3.088 0 0 1 0-.52.47.47 0 0 1 .43-.52c.51-.127.57-.401.217-.793a1.51 1.51 0 0 0-.255-.246 5.265 5.265 0 0 1-2.098-3.46V74c-.167-.98.137-1.333 1.098-1.206.52.106 1.035.244 1.539.412.196-.255 0-.441-.177-.628-.46-.529-.882-1.089-1.264-1.676a3.824 3.824 0 0 1-.324-2.843 1.49 1.49 0 0 1 2.324-.775c.078.05.147.138.235.167.088.03.54.235.686.147a.745.745 0 0 0 .324-.863 8.235 8.235 0 0 1-.265-1.078 18.04 18.04 0 0 1-.235-2.04 7.324 7.324 0 0 1 .843-3.607c.168-.288.404-.53.686-.706.785-.5 1.285-.353 1.736.46.098.167.176.344.274.51.275.451.52.471.843.05.203-.289.38-.594.53-.912.205-.402.382-.814.588-1.206.441-.804.892-1.608 1.343-2.402a4.51 4.51 0 0 1 2.274-1.765c.8-.142 1.61.19 2.079.853.379.66.681 1.36.902 2.088.336 1.29.591 2.6.765 3.922.068.813.048 1.632-.06 2.441-.048.588 0 .696.638.667.196-.015.392-.015.588 0 .932.078 1.206.363 1.432 1.294a4.54 4.54 0 0 1-.187 2.48 5.451 5.451 0 0 1-1.176 2.187c-.608.637-1.275 1.215-1.96 1.794-.5.431-.981.823-1.55 1.235-.186.137-.392.255-.588.382l.117.206c.304.137.618.304.932.412a2.069 2.069 0 0 1 1.304 1.794 1.784 1.784 0 0 1-.834 1.775c-.69.593-1.56.938-2.47.98-.54.061-1.073.18-1.588.353a1.5 1.5 0 0 1-.628 0c-.615 0-1.218.177-1.735.51.274.176.45.313.647.412a.549.549 0 0 1 .255.784 2.51 2.51 0 0 1-1.216 1.225c-.24.127-.468.271-.686.432a16.833 16.833 0 0 1-4.402 2.539c-.647.265-.863.176-1.402-.392l-1.324 2.049c-.215.059-.402.059-.5.147-.813.794-1.617 1.598-2.421 2.412a1.03 1.03 0 0 0-.294.892c.01.858.172 1.708.48 2.51.16.554.16 1.142 0 1.696a10.96 10.96 0 0 1-.559 2.725 2.853 2.853 0 0 1-3.049 1.96c-.459-.045-.922.002-1.362.138a3.745 3.745 0 0 1-1.746 0c-.274-.059-.539-.441-.696-.725a2.235 2.235 0 0 0-1.225-1.255 6.284 6.284 0 0 1-2.069-1.598.775.775 0 0 1-.147-.53c-.01-1.1.04-2.2.147-3.294.128-.912.265-1.96 1.343-2.333a4.176 4.176 0 0 0 .98-1.96c.07-1.207 0-2.422.06-3.638-.002-.39.021-.78.068-1.167.098-.637 0-.745-.53-1.127a15.294 15.294 0 0 1-1.362-1.167c-.059-.059-.098-.137-.167-.167-1.058-.578-1.686-1.637-2.637-2.323a3.814 3.814 0 0 1-.549-.559zm17.824 6.755c-.06 0-.089-.078-.138-.088-.049-.01-.058 0-.058.078a.422.422 0 0 0 0 .128l.196-.118z" fill="#00040C" fill-rule="nonzero"/></svg>
